events/images/new_member.svg

<?xml version="1.0" encoding="UTF-8" standalone="no"?>
<svg
   width="498.80219"
   height="499.21481"
   overflow="hidden"
   version="1.1"
   id="svg25"
   sodipodi:docname="new_member.svg"
   inkscape:version="1.4.3 (0d15f75, 2025-12-25)"
   xmlns:inkscape="http://www.inkscape.org/namespaces/inkscape"
   xmlns:sodipodi="http://sodipodi.sourceforge.net/DTD/sodipodi-0.dtd"
   xmlns="http://www.w3.org/2000/svg"
   xmlns:svg="http://www.w3.org/2000/svg">
  <sodipodi:namedview
     id="namedview25"
     pagecolor="#ffffff"
     bordercolor="#000000"
     borderopacity="0.25"
     inkscape:showpageshadow="2"
     inkscape:pageopacity="0.0"
     inkscape:pagecheckerboard="0"
     inkscape:deskcolor="#d1d1d1"
     inkscape:zoom="0.6875"
     inkscape:cx="248.72727"
     inkscape:cy="250.90909"
     inkscape:window-width="1024"
     inkscape:window-height="1186"
     inkscape:window-x="0"
     inkscape:window-y="25"
     inkscape:window-maximized="0"
     inkscape:current-layer="svg25" />
  <defs
     id="defs9">
    <clipPath
       id="clip0">
      <rect
         x="471"
         y="262"
         width="191"
         height="192"
         id="rect1" />
    </clipPath>
    <clipPath
       id="clip1">
      <rect
         x="471"
         y="262"
         width="191"
         height="192"
         id="rect2" />
    </clipPath>
    <clipPath
       id="clip2">
      <rect
         x="471"
         y="262"
         width="191"
         height="192"
         id="rect3" />
    </clipPath>
    <clipPath
       id="clip3">
      <rect
         x="541"
         y="207"
         width="248"
         height="249"
         id="rect4" />
    </clipPath>
    <clipPath
       id="clip4">
      <rect
         x="541"
         y="207"
         width="248"
         height="249"
         id="rect5" />
    </clipPath>
    <clipPath
       id="clip5">
      <rect
         x="541"
         y="207"
         width="248"
         height="249"
         id="rect6" />
    </clipPath>
    <clipPath
       id="clip6">
      <rect
         x="564"
         y="207"
         width="249"
         height="249"
         id="rect7" />
    </clipPath>
    <clipPath
       id="clip7">
      <rect
         x="564"
         y="207"
         width="249"
         height="249"
         id="rect8" />
    </clipPath>
    <clipPath
       id="clip8">
      <rect
         x="564"
         y="207"
         width="249"
         height="249"
         id="rect9" />
    </clipPath>
  </defs>
  <g
     id="g25"
     transform="translate(-390.5988,-109.11062)">
    <g
       id="g12">
      <g
         id="g11">
        <g
           id="g10">
          <path
             d="m 500.43,265.361 30.949,-62.659 c 1.942,-3.911 1.785,-8.583 -0.394,-12.363 -2.179,-3.806 -6.143,-6.248 -10.526,-6.537 l -69.72,-4.515 -4.515,-69.72 c -0.289,-4.383 -2.73,-8.321 -6.536,-10.5257 -3.807,-2.205 -8.453,-2.3626 -12.391,-0.3938 L 364.691,129.623 325.92,71.4788 c -4.883,-7.2975 -16.957,-7.2975 -21.84,0 L 265.309,129.623 202.702,98.6475 c -3.963,-1.9688 -8.583,-1.8112 -12.39,0.3938 -3.806,2.1787 -6.247,6.1427 -6.536,10.5257 l -4.489,69.72 -69.746,4.489 c -4.383,0.289 -8.347,2.73 -10.526,6.536 -2.205,3.807 -2.3363,8.453 -0.3938,12.39 l 30.9488,62.633 -58.1175,38.771 c -3.6488,2.442 -5.8537,6.536 -5.8537,10.92 0,4.384 2.1787,8.479 5.8537,10.92 l 58.1435,38.771 -30.9748,62.633 c -1.9425,3.938 -1.7849,8.584 0.3938,12.39 2.179,3.78 6.143,6.247 10.526,6.51 l 69.72,4.489 4.489,69.746 c 0.289,4.384 2.73,8.321 6.536,10.526 3.78,2.179 8.4,2.31 12.39,0.394 l 62.633,-30.949 38.771,58.118 c 2.441,3.648 6.536,5.854 10.92,5.854 4.384,0 8.479,-2.179 10.92,-5.854 l 38.771,-58.118 62.633,30.949 c 3.937,1.916 8.584,1.785 12.39,-0.394 3.806,-2.178 6.247,-6.142 6.536,-10.526 l 4.489,-69.72 69.72,-4.515 c 4.383,-0.289 8.321,-2.73 10.526,-6.536 2.179,-3.806 2.336,-8.453 0.394,-12.39 L 500.43,364.717 558.547,325.92 c 3.649,-2.441 5.854,-6.536 5.854,-10.92 0,-4.384 -2.179,-8.479 -5.854,-10.92 z"
             fill="#fceebd"
             transform="matrix(1,0,0,1.00159,325,43)"
             id="path10" />
        </g>
      </g>
    </g>
    <g
       clip-path="url(#clip0)"
       id="g15">
      <g
         clip-path="url(#clip1)"
         id="g14">
        <g
           clip-path="url(#clip2)"
           id="g13">
          <path
             d="m 2143.61,2262.37 c -1.64,8.27 -3.5,19.06 -9.09,19.06 -0.62,-0.02 -1.24,-0.15 -1.81,-0.39 -1.89,4.61 -4.11,14.32 -6.62,18.99 -26.52,17.1 -34.15,52.46 -17.06,78.97 1.66,2.56 3.51,4.99 5.55,7.26 h -110.12 c 0,0 4.85,-26.81 13.37,-28.59 53.42,-11.21 56.59,-41.07 56.59,-41.07 v -15.4 c -2.79,-4.01 -5.23,-15.15 -7.29,-20.16 -0.57,0.23 -1.18,0.37 -1.8,0.38 -5.6,0 -7.45,-10.78 -9.09,-19.06 -0.89,-3.4 -0.91,-6.97 -0.07,-10.39 0,-0.39 -0.06,-0.79 -0.06,-1.18 0,-29.54 11.58,-51.98 37.45,-55.11 0,0 4.16,-0.22 6.07,-0.34 1.4,0.12 6.66,0.34 6.66,0.34 25.87,3.13 37.46,25.57 37.46,55.11 0,0.39 -0.06,0.79 -0.07,1.18 0.85,3.42 0.82,6.99 -0.07,10.4 z m -43.69,-67.09 v 0 c 1.16,-0.17 2.25,0.63 2.43,1.8 0.17,1.17 -0.64,2.26 -1.81,2.43 -1.16,0.18 -2.25,-0.63 -2.42,-1.8 -0.16,-1.05 0.48,-2.05 1.5,-2.36 -0.49,-0.04 -0.52,-0.07 0.3,-0.07 z"
             fill="#00883a"
             fill-rule="evenodd"
             transform="matrix(1,0,0,1.00524,-1533.21,-1944.76)"
             id="path12" />
          <path
             d="m 2156.79,2309.91 c 21.08,0 38.18,17.09 38.18,38.18 0,21.08 -17.1,38.18 -38.18,38.18 -21.09,0 -38.18,-17.1 -38.18,-38.18 0,-21.09 17.09,-38.18 38.18,-38.18 z m -18.69,44.54 h 12.72 v 12.73 c 0,3.51 2.85,6.36 6.37,6.36 3.51,0 6.36,-2.85 6.36,-6.36 v -12.73 h 12.73 c 3.51,0 6.36,-2.85 6.36,-6.36 0,-3.52 -2.85,-6.37 -6.36,-6.37 h -12.73 V 2329 c 0,-3.52 -2.85,-6.37 -6.36,-6.37 -3.52,0 -6.37,2.85 -6.37,6.37 v 12.72 h -12.72 c -3.52,0 -6.37,2.85 -6.37,6.37 0,3.51 2.85,6.36 6.37,6.36 z"
             fill="#00883a"
             fill-rule="evenodd"
             transform="matrix(1,0,0,1.00524,-1533.21,-1944.76)"
             id="path13" />
        </g>
      </g>
    </g>
    <path
       d="m 550,282 c 0,-11.046 6.716,-20 15,-20 8.284,0 15,8.954 15,20 0,11.046 -6.716,20 -15,20 -8.284,0 -15,-8.954 -15,-20 z"
       fill="#00883a"
       fill-rule="evenodd"
       id="path15" />
    <g
       clip-path="url(#clip3)"
       id="g19">
      <g
         clip-path="url(#clip4)"
         id="g18">
        <g
           clip-path="url(#clip5)"
           id="g17">
          <path
             d="m 2783.32,2937.53 c -2.13,10.74 -4.54,24.75 -11.8,24.75 -0.81,-0.03 -1.6,-0.2 -2.35,-0.51 -2.45,5.98 -5.33,18.59 -8.59,24.66 -34.43,22.2 -44.35,68.11 -22.15,102.54 2.15,3.32 4.55,6.48 7.2,9.42 h -142.97 c 0,0 6.29,-34.81 17.35,-37.13 69.36,-14.55 73.47,-53.32 73.47,-53.32 v -19.99 c -3.61,-5.21 -6.78,-19.68 -9.45,-26.19 -0.75,0.31 -1.54,0.48 -2.35,0.51 -7.27,0 -9.67,-14 -11.8,-24.75 -1.15,-4.42 -1.18,-9.06 -0.08,-13.49 0,-0.51 -0.09,-1.03 -0.09,-1.53 0,-38.36 15.04,-67.51 48.64,-71.56 0,0 5.39,-0.28 7.87,-0.44 1.82,0.15 8.65,0.44 8.65,0.44 33.59,4.05 48.64,33.2 48.64,71.56 0,0.5 -0.08,1.02 -0.09,1.53 1.09,4.43 1.06,9.08 -0.1,13.5 z m -56.73,-87.11 v 0 c 1.52,-0.23 2.93,0.82 3.16,2.33 0.22,1.52 -0.82,2.94 -2.34,3.16 -1.52,0.23 -2.93,-0.82 -3.15,-2.33 -0.21,-1.37 0.62,-2.68 1.94,-3.07 -0.62,-0.05 -0.66,-0.09 0.39,-0.09 z"
             fill="#fceebd"
             fill-rule="evenodd"
             transform="matrix(1,0,0,1.00403,-2061.32,-2654.89)"
             id="path16" />
          <path
             d="m 2800.44,2999.25 c 27.37,0 49.57,22.2 49.57,49.57 0,27.38 -22.2,49.58 -49.57,49.58 -27.38,0 -49.58,-22.2 -49.58,-49.58 0,-27.37 22.2,-49.57 49.58,-49.57 z m -24.27,57.84 h 16.52 v 16.52 c 0,4.57 3.7,8.26 8.26,8.26 4.57,0 8.27,-3.69 8.27,-8.26 v -16.52 h 16.52 c 4.56,0 8.26,-3.7 8.26,-8.27 0,-4.56 -3.7,-8.26 -8.26,-8.26 h -16.52 v -16.52 c 0,-4.57 -3.7,-8.26 -8.27,-8.26 -4.56,0 -8.26,3.69 -8.26,8.26 v 16.52 h -16.52 c -4.57,0 -8.27,3.7 -8.27,8.26 0,4.57 3.7,8.27 8.27,8.27 z"
             fill="#fceebd"
             fill-rule="evenodd"
             transform="matrix(1,0,0,1.00403,-2061.32,-2654.89)"
             id="path17" />
        </g>
      </g>
    </g>
    <path
       d="m 645,233 c 0,-14.359 8.954,-26 20,-26 11.046,0 20,11.641 20,26 0,14.359 -8.954,26 -20,26 -11.046,0 -20,-11.641 -20,-26 z"
       fill="#fceebd"
       fill-rule="evenodd"
       id="path19" />
    <g
       clip-path="url(#clip6)"
       id="g23">
      <g
         clip-path="url(#clip7)"
         id="g22">
        <g
           clip-path="url(#clip8)"
           id="g21">
          <path
             d="m 745.726,294.478 c -2.137,10.784 -4.563,24.85 -11.851,24.85 -0.809,-0.025 -1.609,-0.195 -2.356,-0.506 -2.464,6.002 -5.355,18.665 -8.627,24.758 -34.569,22.287 -44.523,68.382 -22.237,102.95 2.153,3.339 4.571,6.504 7.23,9.457 H 564.332 c 0,0 6.317,-34.945 17.421,-37.272 69.642,-14.613 73.773,-53.541 73.773,-53.541 v -20.071 c -3.629,-5.231 -6.815,-19.757 -9.494,-26.289 -0.747,0.306 -1.547,0.481 -2.356,0.505 -7.296,0 -9.714,-14.057 -11.851,-24.849 -1.157,-4.439 -1.186,-9.096 -0.082,-13.547 0,-0.51 -0.087,-1.029 -0.087,-1.535 0,-38.513 15.106,-67.776 48.832,-71.845 0,0 5.417,-0.286 7.906,-0.444 1.825,0.15 8.686,0.444 8.686,0.444 33.726,4.069 48.832,33.332 48.832,71.845 0,0.506 -0.079,1.025 -0.087,1.535 1.099,4.455 1.066,9.117 -0.099,13.555 z m -56.959,-87.457 v 0 c 1.523,-0.229 2.941,0.821 3.169,2.343 0.228,1.526 -0.825,2.945 -2.347,3.169 -1.523,0.228 -2.941,-0.821 -3.165,-2.344 -0.208,-1.373 0.626,-2.683 1.953,-3.081 -0.63,-0.05 -0.668,-0.087 0.39,-0.087 z"
             fill="#00883a"
             fill-rule="evenodd"
             id="path20" />
          <path
             d="m 762.91,356.451 c 27.488,0 49.775,22.287 49.775,49.774 0,27.488 -22.287,49.775 -49.775,49.775 -27.488,0 -49.774,-22.287 -49.774,-49.775 0,-27.487 22.286,-49.774 49.774,-49.774 z m -24.368,58.07 h 16.591 v 16.592 c 0,4.583 3.712,8.295 8.296,8.295 4.583,0 8.295,-3.712 8.295,-8.295 v -16.592 h 16.592 c 4.583,0 8.296,-3.712 8.296,-8.296 0,-4.583 -3.713,-8.295 -8.296,-8.295 h -16.592 v -16.592 c 0,-4.583 -3.712,-8.296 -8.295,-8.296 -4.584,0 -8.296,3.713 -8.296,8.296 v 16.592 h -16.591 c -4.584,0 -8.296,3.712 -8.296,8.295 0,4.584 3.712,8.296 8.296,8.296 z"
             fill="#00883a"
             fill-rule="evenodd"
             id="path21" />
        </g>
      </g>
    </g>
    <path
       d="m 669,233 c 0,-14.359 8.73,-26 19.5,-26 10.77,0 19.5,11.641 19.5,26 0,14.359 -8.73,26 -19.5,26 -10.77,0 -19.5,-11.641 -19.5,-26 z"
       fill="#00883a"
       fill-rule="evenodd"
       id="path23" />
    <path
       d="m 561.793,414.624 c 5.354,-3.227 10.756,-4.083 12.065,-1.912 1.309,2.172 -1.97,6.549 -7.325,9.776 -5.354,3.227 -10.756,4.083 -12.064,1.912 -1.309,-2.172 1.97,-6.549 7.324,-9.776 z"
       fill="#fceebd"
       fill-rule="evenodd"
       id="path24" />
    <path
       d="m 601.297,383.848 c 14.837,-12.321 29.514,-19.118 32.784,-15.182 3.269,3.937 -6.108,17.116 -20.945,29.438 -14.836,12.321 -29.514,19.118 -32.783,15.182 -3.269,-3.937 6.108,-17.116 20.944,-29.438 z"
       fill="#fceebd"
       fill-rule="evenodd"
       id="path25" />
  </g>
</svg>

<svg width="1280" height="720" xmlns="http://www.w3.org/2000/svg" xmlns:xlink="http://www.w3.org/1999/xlink" overflow="hidden"><defs><clipPath id="clip0"><rect x="471" y="262" width="191" height="192"/></clipPath><clipPath id="clip1"><rect x="471" y="262" width="191" height="192"/></clipPath><clipPath id="clip2"><rect x="471" y="262" width="191" height="192"/></clipPath><clipPath id="clip3"><rect x="541" y="207" width="248" height="249"/></clipPath><clipPath id="clip4"><rect x="541" y="207" width="248" height="249"/></clipPath><clipPath id="clip5"><rect x="541" y="207" width="248" height="249"/></clipPath><clipPath id="clip6"><rect x="564" y="207" width="249" height="249"/></clipPath><clipPath id="clip7"><rect x="564" y="207" width="249" height="249"/></clipPath><clipPath id="clip8"><rect x="564" y="207" width="249" height="249"/></clipPath></defs><g><rect x="0" y="0" width="1280" height="720" fill="#FFFFFF"/><g><g><g><path d="M500.43 265.361 531.379 202.702C533.321 198.791 533.164 194.119 530.985 190.339 528.806 186.533 524.842 184.091 520.459 183.802L450.739 179.287 446.224 109.567C445.935 105.184 443.494 101.246 439.688 99.0413 435.881 96.8363 431.235 96.6787 427.297 98.6475L364.691 129.623 325.92 71.4788C321.037 64.1813 308.963 64.1813 304.08 71.4788L265.309 129.623 202.702 98.6475C198.739 96.6787 194.119 96.8363 190.312 99.0413 186.506 101.22 184.065 105.184 183.776 109.567L179.287 179.287 109.541 183.776C105.158 184.065 101.194 186.506 99.015 190.312 96.81 194.119 96.6787 198.765 98.6212 202.702L129.57 265.335 71.4525 304.106C67.8037 306.548 65.5988 310.642 65.5988 315.026 65.5988 319.41 67.7775 323.505 71.4525 325.946L129.596 364.717 98.6212 427.35C96.6787 431.288 96.8363 435.934 99.015 439.74 101.194 443.52 105.158 445.987 109.541 446.25L179.261 450.739 183.75 520.485C184.039 524.869 186.48 528.806 190.286 531.011 194.066 533.19 198.686 533.321 202.676 531.405L265.309 500.456 304.08 558.574C306.521 562.222 310.616 564.428 315 564.428 319.384 564.428 323.479 562.249 325.92 558.574L364.691 500.456 427.324 531.405C431.261 533.321 435.908 533.19 439.714 531.011 443.52 528.833 445.961 524.869 446.25 520.485L450.739 450.765 520.459 446.25C524.842 445.961 528.78 443.52 530.985 439.714 533.164 435.908 533.321 431.261 531.379 427.324L500.43 364.717 558.547 325.92C562.196 323.479 564.401 319.384 564.401 315 564.401 310.616 562.222 306.521 558.547 304.08L500.43 265.361Z" fill="#FCEEBD" transform="matrix(1 0 0 1.00159 325 43)"/></g></g></g><g clip-path="url(#clip0)"><g clip-path="url(#clip1)"><g clip-path="url(#clip2)"><path d="M2143.61 2262.37C2141.97 2270.64 2140.11 2281.43 2134.52 2281.43 2133.9 2281.41 2133.28 2281.28 2132.71 2281.04 2130.82 2285.65 2128.6 2295.36 2126.09 2300.03 2099.57 2317.13 2091.94 2352.49 2109.03 2379 2110.69 2381.56 2112.54 2383.99 2114.58 2386.26L2004.46 2386.26C2004.46 2386.26 2009.31 2359.45 2017.83 2357.67 2071.25 2346.46 2074.42 2316.6 2074.42 2316.6L2074.42 2301.2C2071.63 2297.19 2069.19 2286.05 2067.13 2281.04 2066.56 2281.27 2065.95 2281.41 2065.33 2281.42 2059.73 2281.42 2057.88 2270.64 2056.24 2262.36 2055.35 2258.96 2055.33 2255.39 2056.17 2251.97 2056.17 2251.58 2056.11 2251.18 2056.11 2250.79 2056.11 2221.25 2067.69 2198.81 2093.56 2195.68 2093.56 2195.68 2097.72 2195.46 2099.63 2195.34 2101.03 2195.46 2106.29 2195.68 2106.29 2195.68 2132.16 2198.81 2143.75 2221.25 2143.75 2250.79 2143.75 2251.18 2143.69 2251.58 2143.68 2251.97 2144.53 2255.39 2144.5 2258.96 2143.61 2262.37ZM2099.92 2195.28 2099.92 2195.28C2101.08 2195.11 2102.17 2195.91 2102.35 2197.08 2102.52 2198.25 2101.71 2199.34 2100.54 2199.51 2099.38 2199.69 2098.29 2198.88 2098.12 2197.71 2097.96 2196.66 2098.6 2195.66 2099.62 2195.35 2099.13 2195.31 2099.1 2195.28 2099.92 2195.28Z" fill="#00883A" fill-rule="evenodd" transform="matrix(1 0 0 1.00524 -1533.21 -1944.76)"/><path d="M2156.79 2309.91C2177.87 2309.91 2194.97 2327 2194.97 2348.09 2194.97 2369.17 2177.87 2386.27 2156.79 2386.27 2135.7 2386.27 2118.61 2369.17 2118.61 2348.09 2118.61 2327 2135.7 2309.91 2156.79 2309.91ZM2138.1 2354.45 2150.82 2354.45 2150.82 2367.18C2150.82 2370.69 2153.67 2373.54 2157.19 2373.54 2160.7 2373.54 2163.55 2370.69 2163.55 2367.18L2163.55 2354.45 2176.28 2354.45C2179.79 2354.45 2182.64 2351.6 2182.64 2348.09 2182.64 2344.57 2179.79 2341.72 2176.28 2341.72L2163.55 2341.72 2163.55 2329C2163.55 2325.48 2160.7 2322.63 2157.19 2322.63 2153.67 2322.63 2150.82 2325.48 2150.82 2329L2150.82 2341.72 2138.1 2341.72C2134.58 2341.72 2131.73 2344.57 2131.73 2348.09 2131.73 2351.6 2134.58 2354.45 2138.1 2354.45Z" fill="#00883A" fill-rule="evenodd" transform="matrix(1 0 0 1.00524 -1533.21 -1944.76)"/></g></g></g><path d="M550 282C550 270.954 556.716 262 565 262 573.284 262 580 270.954 580 282 580 293.046 573.284 302 565 302 556.716 302 550 293.046 550 282Z" fill="#00883A" fill-rule="evenodd"/><g clip-path="url(#clip3)"><g clip-path="url(#clip4)"><g clip-path="url(#clip5)"><path d="M2783.32 2937.53C2781.19 2948.27 2778.78 2962.28 2771.52 2962.28 2770.71 2962.25 2769.92 2962.08 2769.17 2961.77 2766.72 2967.75 2763.84 2980.36 2760.58 2986.43 2726.15 3008.63 2716.23 3054.54 2738.43 3088.97 2740.58 3092.29 2742.98 3095.45 2745.63 3098.39L2602.66 3098.39C2602.66 3098.39 2608.95 3063.58 2620.01 3061.26 2689.37 3046.71 2693.48 3007.94 2693.48 3007.94L2693.48 2987.95C2689.87 2982.74 2686.7 2968.27 2684.03 2961.76 2683.28 2962.07 2682.49 2962.24 2681.68 2962.27 2674.41 2962.27 2672.01 2948.27 2669.88 2937.52 2668.73 2933.1 2668.7 2928.46 2669.8 2924.03 2669.8 2923.52 2669.71 2923 2669.71 2922.5 2669.71 2884.14 2684.75 2854.99 2718.35 2850.94 2718.35 2850.94 2723.74 2850.66 2726.22 2850.5 2728.04 2850.65 2734.87 2850.94 2734.87 2850.94 2768.46 2854.99 2783.51 2884.14 2783.51 2922.5 2783.51 2923 2783.43 2923.52 2783.42 2924.03 2784.51 2928.46 2784.48 2933.11 2783.32 2937.53ZM2726.59 2850.42 2726.59 2850.42C2728.11 2850.19 2729.52 2851.24 2729.75 2852.75 2729.97 2854.27 2728.93 2855.69 2727.41 2855.91 2725.89 2856.14 2724.48 2855.09 2724.26 2853.58 2724.05 2852.21 2724.88 2850.9 2726.2 2850.51 2725.58 2850.46 2725.54 2850.42 2726.59 2850.42Z" fill="#FCEEBD" fill-rule="evenodd" transform="matrix(1 0 0 1.00403 -2061.32 -2654.89)"/><path d="M2800.44 2999.25C2827.81 2999.25 2850.01 3021.45 2850.01 3048.82 2850.01 3076.2 2827.81 3098.4 2800.44 3098.4 2773.06 3098.4 2750.86 3076.2 2750.86 3048.82 2750.86 3021.45 2773.06 2999.25 2800.44 2999.25ZM2776.17 3057.09 2792.69 3057.09 2792.69 3073.61C2792.69 3078.18 2796.39 3081.87 2800.95 3081.87 2805.52 3081.87 2809.22 3078.18 2809.22 3073.61L2809.22 3057.09 2825.74 3057.09C2830.3 3057.09 2834 3053.39 2834 3048.82 2834 3044.26 2830.3 3040.56 2825.74 3040.56L2809.22 3040.56 2809.22 3024.04C2809.22 3019.47 2805.52 3015.78 2800.95 3015.78 2796.39 3015.78 2792.69 3019.47 2792.69 3024.04L2792.69 3040.56 2776.17 3040.56C2771.6 3040.56 2767.9 3044.26 2767.9 3048.82 2767.9 3053.39 2771.6 3057.09 2776.17 3057.09Z" fill="#FCEEBD" fill-rule="evenodd" transform="matrix(1 0 0 1.00403 -2061.32 -2654.89)"/></g></g></g><path d="M645 233C645 218.641 653.954 207 665 207 676.046 207 685 218.641 685 233 685 247.359 676.046 259 665 259 653.954 259 645 247.359 645 233Z" fill="#FCEEBD" fill-rule="evenodd"/><g clip-path="url(#clip6)"><g clip-path="url(#clip7)"><g clip-path="url(#clip8)"><path d="M745.726 294.478C743.589 305.262 741.163 319.328 733.875 319.328 733.066 319.303 732.266 319.133 731.519 318.822 729.055 324.824 726.164 337.487 722.892 343.58 688.323 365.867 678.369 411.962 700.655 446.53 702.808 449.869 705.226 453.034 707.885 455.987L564.332 455.987C564.332 455.987 570.649 421.042 581.753 418.715 651.395 404.102 655.526 365.174 655.526 365.174L655.526 345.103C651.897 339.872 648.711 325.346 646.032 318.814 645.285 319.12 644.485 319.295 643.676 319.319 636.38 319.319 633.962 305.262 631.825 294.47 630.668 290.031 630.639 285.374 631.743 280.923 631.743 280.413 631.656 279.894 631.656 279.388 631.656 240.875 646.762 211.612 680.488 207.543 680.488 207.543 685.905 207.257 688.394 207.099 690.219 207.249 697.08 207.543 697.08 207.543 730.806 211.612 745.912 240.875 745.912 279.388 745.912 279.894 745.833 280.413 745.825 280.923 746.924 285.378 746.891 290.04 745.726 294.478ZM688.767 207.021 688.767 207.021C690.29 206.792 691.708 207.842 691.936 209.364 692.164 210.89 691.111 212.309 689.589 212.533 688.066 212.761 686.648 211.712 686.424 210.189 686.216 208.816 687.05 207.506 688.377 207.108 687.747 207.058 687.709 207.021 688.767 207.021Z" fill="#00883A" fill-rule="evenodd"/><path d="M762.91 356.451C790.398 356.451 812.685 378.738 812.685 406.225 812.685 433.713 790.398 456 762.91 456 735.422 456 713.136 433.713 713.136 406.225 713.136 378.738 735.422 356.451 762.91 356.451ZM738.542 414.521 755.133 414.521 755.133 431.113C755.133 435.696 758.845 439.408 763.429 439.408 768.012 439.408 771.724 435.696 771.724 431.113L771.724 414.521 788.316 414.521C792.899 414.521 796.612 410.809 796.612 406.225 796.612 401.642 792.899 397.93 788.316 397.93L771.724 397.93 771.724 381.338C771.724 376.755 768.012 373.042 763.429 373.042 758.845 373.042 755.133 376.755 755.133 381.338L755.133 397.93 738.542 397.93C733.958 397.93 730.246 401.642 730.246 406.225 730.246 410.809 733.958 414.521 738.542 414.521Z" fill="#00883A" fill-rule="evenodd"/></g></g></g><path d="M669 233C669 218.641 677.73 207 688.5 207 699.27 207 708 218.641 708 233 708 247.359 699.27 259 688.5 259 677.73 259 669 247.359 669 233Z" fill="#00883A" fill-rule="evenodd"/><path d="M561.793 414.624C567.147 411.397 572.549 410.541 573.858 412.712 575.167 414.884 571.888 419.261 566.533 422.488 561.179 425.715 555.777 426.571 554.469 424.4 553.16 422.228 556.439 417.851 561.793 414.624Z" fill="#FCEEBD" fill-rule="evenodd"/><path d="M601.297 383.848C616.134 371.527 630.811 364.73 634.081 368.666 637.35 372.603 627.973 385.782 613.136 398.104 598.3 410.425 583.622 417.222 580.353 413.286 577.084 409.349 586.461 396.17 601.297 383.848Z" fill="#FCEEBD" fill-rule="evenodd"/></g></svg>
